icons/Logos/coreos-line.svg

<svg viewBox="0 0 24 24" xmlns="http://www.w3.org/2000/svg"><path d="M9.45447 4.41393C8.31731 4.79453 7.24869 5.4376 6.34315 6.34315C3.21895 9.46734 3.21895 14.5327 6.34315 17.6569C9.46734 20.781 14.5327 20.781 17.6569 17.6569C18.6209 16.6929 19.2874 15.544 19.6565 14.3245C16.2563 15.7834 12.4077 16.3049 8.11091 15.8891C7.39961 11.7635 7.84746 7.93846 9.45447 4.41393ZM11.9023 4.00059C11.2268 5.21641 10.7129 6.47151 10.3605 7.76913C11.853 7.80085 13.3359 8.38618 14.4749 9.52513C15.5494 10.5997 16.1312 11.9804 16.2202 13.3864C17.5495 13.0447 18.8086 12.5666 19.9999 11.9528C19.9922 10.6417 19.6642 9.33223 19.016 8.15169C18.6567 7.49783 18.202 6.88829 17.6569 6.34315C17.0828 5.76913 16.4374 5.29549 15.7442 4.92788C14.5473 4.29366 13.2232 3.98456 11.9023 4.00059ZM4.92893 19.0711C1.02369 15.1658 1.02369 8.83418 4.92893 4.92893C8.83418 1.02369 15.1658 1.02369 19.0711 4.92893C22.9763 8.83418 22.9763 15.1658 19.0711 19.0711C15.1658 22.9763 8.83418 22.9763 4.92893 19.0711ZM9.94875 9.77776C9.75716 11.1407 9.73211 12.5491 9.87338 14.0066C11.3972 14.0679 12.8495 13.9948 14.2322 13.788C14.2374 12.7576 13.8469 11.7255 13.0607 10.9393C12.2075 10.0861 11.0647 9.69895 9.94875 9.77776Z"/></svg>

<svg xmlns="http://www.w3.org/2000/svg" viewBox="0 0 24 24">
    <g>
        <path fill="none" d="M0 0h24v24H0z"/>
        <path fill-rule="nonzero" d="M9.42 4.4a8 8 0 1 0 10.202 9.91c-3.4 1.46-7.248 1.98-11.545 1.565-.711-4.126-.264-7.95 1.343-11.475zm2.448-.414a16.805 16.805 0 0 0-1.542 3.769 5.98 5.98 0 0 1 4.115 1.756 5.977 5.977 0 0 1 1.745 3.861c1.33-.341 2.589-.82 3.78-1.433a7.994 7.994 0 0 0-8.098-7.953zM4.895 19.057C.99 15.152.99 8.82 4.895 4.915c3.905-3.905 10.237-3.905 14.142 0 3.905 3.905 3.905 10.237 0 14.142-3.905 3.905-10.237 3.905-14.142 0zm5.02-9.293a17.885 17.885 0 0 0-.076 4.229 23.144 23.144 0 0 0 4.36-.22 3.988 3.988 0 0 0-1.172-2.848 3.99 3.99 0 0 0-3.112-1.161z"/>
    </g>
</svg>
